X:50
T:Ailheach
M:4/4
L:1/16
R:Strathspey
C:Gris Sanderson
Q:400
N:Ailheach is the Gaelic name for the town I grew up in and 
N:means 'rocky place', which it certainly is, situated on an 
N:alluvial fan at the foot of the craggy Alva Glen in the Ochils.
K:Ddor
G,A,3C3A, G,A,3C4|A,C3F3G FD3 C4|F3DC3D CA,3 G,4|A,2D2G3B, C3A,G,2B,2|
A,D3D3C G,D3D2E2|A,D3D3C G,D3E2G2|AD3A3B cC3G2c2|1d4c3A GE3D3C:|2d4c3A BG3B3c||
||:dD3cD3 AD3~B4|c3A GE3 C3D EA3|dD3cD3 AD3G4|B3d GB3 c3F AF3|
dD3cD3 AD3~B4|c3A GE3 D3E CG,3|A,2D2 G2B,2 C3A, G,2B,2|1A,D3 D3C A,D3 A2c2:|2A,D3 D3C A,D3 D4||
